X: 23
T: Bloom of the Pea
%R: jig
B: "Twenty Four Country Dances for the Year 1781", Thomas Skillern, ed. p.12 #1
F: http://www.vwml.org/browse/browse-collections-dance-tune-books/browse-skillerns1781#
Z: 2014 John Chambers <jc:trillian.mit.edu>
M: 6/8
L: 1/8
K: G
|:\
gfg d2c | BcA G3 | G2D B2G | dcB A3 |\
gfg d2c | BcA G2d | g2e f2d | Ad^c d3 :|
|:\
dcd D2d | cBc D3 | cBA BAG | F2G AFD |\
gfg d2c | BcA G3 | DcB AGF | GDB, G,3 :|
%%begintext align
%%   First and 2d Cu. Right Hands across Left
%% back again .| figure down the side and up
%% again :| Cross over two Cu. lead up & Cast off :|.
%% Six Hands Round lead thro' the top & Cast off :|:
%%endtext

%%sep 1 1 500
%%sep 1 1 500
